X: 1432
T: Kiss Me Kate
M:C|
L:1/8
N:"collected by F. O'Neill"
B:O'Neill's 1432
Z:"Transcribed by Bob Safranek, rjs@gsp.org"
K:G
"   Sign"D | G2 (Bd)   gdBG  | D2 (GB) AEEF | G2 (Bd) gdBd    | ecBc    ADEF  |
    G2 (Bd)   gdBG  | D2 (GB) AEEF | G2 (Bd) gdBd    | ecAc   (BG) "   Fine"G ||
g | fgag      fddg  | fgag    bgeg | fgag    fddg    | fdef    g2 (dg)        |
   ((3gab) af g2 bg | fgag    fddg | fded    fded    | fdef    ged"   Sign"B  |]


